Yaru++/apps/scalable/flashplayer.svg

<svg height="256" width="256" xmlns="http://www.w3.org/2000/svg" xmlns:xlink="http://www.w3.org/1999/xlink">
  <linearGradient id="linearGradient4358" gradientTransform="matrix(0 -1 1 0 -10.0054 585.9946)" gradientUnits="userSpaceOnUse" x1="88" x2="488" y1="88" y2="488">
    <stop offset="0" stop-opacity=".588235"/>
    <stop offset=".88" stop-opacity="0"/>
    <stop offset="1"/>
  </linearGradient>
  <filter id="filter4380" color-interpolation-filters="sRGB" height="1.088" width="1.106" x="-.05" y="-.04">
    <feGaussianBlur stdDeviation="8.48"/>
  </filter>
  <filter id="filter4346" color-interpolation-filters="sRGB" height="1.022" width="1.026" x="-.01" y="-.01">
    <feGaussianBlur stdDeviation="2.12"/>
  </filter>
  <linearGradient id="linearGradient871" gradientUnits="userSpaceOnUse" x1="40.659" x2="207.94" y1="22.51" y2="235.588">
    <stop offset="0" stop-color="#da1636"/>
    <stop offset="1" stop-color="#f22c42"/>
  </linearGradient>
  <path d="m189.84323 74c-70.59344 0-78.18921 7.250835-77.84323 77.98706v146.01294 146.01294c-.34598 70.73623 7.24979 77.98706 77.84323 77.98706h196.31354c70.59344 0 76.00668-7.27384 77.84323-77.98706v-146.01294-146.01294c0-70.737067-7.24979-77.98706-77.84323-77.98706z" filter="url(#filter4346)" opacity=".1" transform="matrix(0 .5 -.5 0 276.82523 -15.328148)"/>
  <path d="m189.84323 74c-70.59344 0-78.18921 7.250835-77.84323 77.98706v146.01294 146.01294c-.34598 70.73623 7.24979 77.98706 77.84323 77.98706h196.31354c70.59344 0 77.84323-7.24999 77.84323-77.98706v-146.01294-146.01294c0-70.737067-7.24979-77.98706-77.84323-77.98706z" fill="url(#linearGradient4358)" filter="url(#filter4380)" opacity=".3" transform="matrix(0 .5 -.5 0 276.82523 -15.328148)"/>
  <path d="m241.83043 77.478254c0-36.098811-3.69016-39.983003-39.68984-39.806081h-74.31016-74.310145c-35.99969-.176922-39.689841 3.70727-39.689841 39.806081v100.387326c0 36.09881 3.689731 39.80608 39.689841 39.80608h74.310145 74.31016c36.00011 0 39.68984-3.70727 39.68984-39.80608z" opacity=".1"/>
  <path d="m239.82523 176.74484c0 35.29673-3.62542 39.09461-38.99353 38.92162h-73.00647-73.006455c-35.36812.17299-38.993531-3.62489-38.993531-38.92162v-98.156766c0-35.296716 3.625001-38.921616 38.993531-38.921616h73.006455 73.00647c35.36853 0 38.99353 3.6249 38.99353 38.921616z" fill="url(#linearGradient871)"/>
  <path d="m15.827944 127.66916v8 41.00586c0 35.36853 3.625166 38.99414 38.921876 38.99414h146.15624c35.29673 0 39.09486-3.62602 38.92187-38.99414v-41.00586-8z" fill="#fff" opacity=".1"/>
  <path d="m54.818179 39.667201c-35.36853 0-38.992188 3.623202-38.992188 38.919923v98.158206c0 .0882.0019.16224.002.25v-96.410156c-.000047-35.29672 3.625565-38.921879 38.994095-38.921879h73.005844 73.00586c35.28016 0 38.97394 3.621035 38.99219 38.671879v-1.74805c0-35.296721-3.62561-38.919923-38.99414-38.919923h-73.00586z" fill="#fff" opacity=".3"/>
  <path d="m15.825991 174.74533v2c0 35.29673 3.624068 39.09487 38.992188 38.92188h73.007801 73.00586c35.36811.17299 38.99414-3.62515 38.99414-38.92188v-2c0 35.29673-3.62603 39.09487-38.99414 38.92188h-73.00586-73.007801c-35.36812.17299-38.992188-3.62515-38.992188-38.92188z" opacity=".2"/>
  <path d="m187.82466 52.720776v30.174646c-30.12664.529785-37.53043 29.909908-37.53043 29.909908h22.72285v30.17464h-35.23325c-21.1944 65.38315-69.958019 59.55582-69.958019 59.55582v-30.17465s30.94412 5.74034 46.722179-51.87903c19.73194-72.079712 73.27292-67.763584 73.27292-67.763584z" fill="#fff"/>
  <path d="m187.82422 80.894531c-30.12664.529785-37.5293 29.910159-37.5293 29.910159h.63281c2.27418-6.55949 11.49115-27.463399 36.89649-27.910159zm-50.04102 60.085939c-21.1944 65.38315-69.957028 59.55469-69.957028 59.55469v2s48.762628 5.82846 69.957028-59.55469h35.23438v-2z" fill="#0b0b0b" opacity=".2"/>
</svg>

<svg xmlns="http://www.w3.org/2000/svg" xmlns:osb="http://www.openswatchbook.org/uri/2009/osb" xmlns:xlink="http://www.w3.org/1999/xlink" width="256" height="256" version="1.1">
 <defs>
  <linearGradient id="linearGradient5606" osb:paint="solid">
   <stop id="stop5608" offset="0" style="stop-color:#000000"/>
  </linearGradient>
  <linearGradient id="linearGradient4526" osb:paint="solid">
   <stop id="stop4528" offset="0" style="stop-color:#ffffff"/>
  </linearGradient>
  <linearGradient id="linearGradient3600-4" osb:paint="gradient">
   <stop id="stop3602-7" offset="0" style="stop-color:#f4f4f4"/>
   <stop id="stop3604-6" offset="1" style="stop-color:#dbdbdb"/>
  </linearGradient>
  <linearGradient id="linearGradient4210">
   <stop style="stop-color:#d78ec1" id="stop4212" offset="0"/>
   <stop id="stop4218" offset=".646" style="stop-color:#d78ec1"/>
   <stop style="stop-color:#d78ec1;stop-opacity:0" id="stop4214" offset="1"/>
  </linearGradient>
  <linearGradient id="linearGradient1108" x1="56" x2="56" y1="288" y2="83.578" gradientTransform="matrix(0.5,0,0,0.5,12,10)" gradientUnits="userSpaceOnUse" spreadMethod="reflect" xlink:href="#linearGradient4210"/>
  <radialGradient id="radialGradient3322" cx="26.617" cy="-2.065" r="23" gradientTransform="matrix(-4.8906e-8,-2.8515,3.7557,0,674.00149,398.26285)" gradientUnits="userSpaceOnUse">
   <stop id="stop2749" offset="0" style="stop-color:#d280b9"/>
   <stop style="stop-color:#b549b5" id="stop4269" offset=".529"/>
   <stop id="stop2755" offset="1" style="stop-color:#8940a8"/>
  </radialGradient>
  <linearGradient id="linearGradient4358" x1="88" x2="488" y1="88" y2="488" gradientTransform="rotate(-90,287.9946,298)" gradientUnits="userSpaceOnUse" xlink:href="#linearGradient4360"/>
  <linearGradient id="linearGradient4360">
   <stop id="stop4362" offset="0" style="stop-color:#000000;stop-opacity:0.58823532"/>
   <stop style="stop-color:#000000;stop-opacity:0" id="stop4364" offset=".88"/>
   <stop id="stop4366" offset="1" style="stop-color:#000000"/>
  </linearGradient>
  <filter style="color-interpolation-filters:sRGB" id="filter4380" width="1.106" height="1.088" x="-.05" y="-.04">
   <feGaussianBlur id="feGaussianBlur4382" stdDeviation="8.48"/>
  </filter>
  <filter style="color-interpolation-filters:sRGB" id="filter4346" width="1.026" height="1.022" x="-.01" y="-.01">
   <feGaussianBlur id="feGaussianBlur4348" stdDeviation="2.12"/>
  </filter>
  <linearGradient id="linearGradient876-3">
   <stop style="stop-color:#da1636" id="stop872-3" offset="0"/>
   <stop style="stop-color:#f22c42" id="stop874-5" offset="1"/>
  </linearGradient>
  <linearGradient id="linearGradient871" x1="40.659" x2="207.94" y1="22.51" y2="235.588" gradientUnits="userSpaceOnUse" xlink:href="#linearGradient876-3"/>
 </defs>
 <path style="opacity:0.1;filter:url(#filter4346)" d="M 189.84323,74 C 119.24979,74 111.65402,81.250835 112,151.98706 V 298 444.01294 C 111.65402,514.74917 119.24979,522 189.84323,522 H 386.15677 C 456.75021,522 462.16345,514.72616 464,444.01294 V 298 151.98706 C 464,81.249993 456.75021,74 386.15677,74 Z" transform="matrix(0,0.5,-0.5,0,276.82523,-15.328148)"/>
 <path style="opacity:0.3;fill:url(#linearGradient4358);filter:url(#filter4380)" d="M 189.84323,74 C 119.24979,74 111.65402,81.250835 112,151.98706 V 298 444.01294 C 111.65402,514.74917 119.24979,522 189.84323,522 H 386.15677 C 456.75021,522 464,514.75001 464,444.01294 V 298 151.98706 C 464,81.249993 456.75021,74 386.15677,74 Z" transform="matrix(0,0.5,-0.5,0,276.82523,-15.328148)"/>
 <path style="opacity:0.1" d="m 241.83043,77.478254 c 0,-36.098811 -3.69016,-39.983003 -39.68984,-39.806081 H 127.83043 53.520285 C 17.520595,37.495251 13.830444,41.379443 13.830444,77.478254 V 177.86558 c 0,36.09881 3.689731,39.80608 39.689841,39.80608 h 74.310145 74.31016 c 36.00011,0 39.68984,-3.70727 39.68984,-39.80608 z"/>
 <path style="fill:url(#linearGradient871)" d="m 239.82523,176.74484 c 0,35.29673 -3.62542,39.09461 -38.99353,38.92162 H 127.82523 54.818775 c -35.36812,0.17299 -38.993531,-3.62489 -38.993531,-38.92162 V 78.588074 c 0,-35.296716 3.625001,-38.921616 38.993531,-38.921616 h 73.006455 73.00647 c 35.36853,0 38.99353,3.6249 38.99353,38.921616 z"/>
 <path style="opacity:0.1;fill:#ffffff" d="m 15.827944,127.66916 v 8 41.00586 c 0,35.36853 3.625166,38.99414 38.921876,38.99414 h 146.15624 c 35.29673,0 39.09486,-3.62602 38.92187,-38.99414 v -41.00586 -8 z"/>
 <path style="opacity:0.3;fill:#ffffff" d="m 54.818179,39.667201 c -35.36853,0 -38.992188,3.623202 -38.992188,38.919923 v 98.158206 c 0,0.0882 0.0019,0.16224 0.002,0.25 V 80.585174 c -4.7e-5,-35.29672 3.625565,-38.921879 38.994095,-38.921879 h 73.005844 73.00586 c 35.28016,0 38.97394,3.621035 38.99219,38.671879 v -1.74805 c 0,-35.296721 -3.62561,-38.919923 -38.99414,-38.919923 h -73.00586 z"/>
 <path style="opacity:0.2" d="m 15.825991,174.74533 v 2 c 0,35.29673 3.624068,39.09487 38.992188,38.92188 h 73.007801 73.00586 c 35.36811,0.17299 38.99414,-3.62515 38.99414,-38.92188 v -2 c 0,35.29673 -3.62603,39.09487 -38.99414,38.92188 H 127.82598 54.818179 c -35.36812,0.17299 -38.992188,-3.62515 -38.992188,-38.92188 z"/>
 <path style="fill:#ffffff" d="m 187.82466,52.720776 v 30.174646 c -30.12664,0.529785 -37.53043,29.909908 -37.53043,29.909908 h 22.72285 v 30.17464 h -35.23325 c -21.1944,65.38315 -69.958019,59.55582 -69.958019,59.55582 v -30.17465 c 0,0 30.94412,5.74034 46.722179,-51.87903 19.73194,-72.079712 73.27292,-67.763584 73.27292,-67.763584 z"/>
 <path style="fill:#0b0b0b;opacity:0.2" d="M 187.82422 80.894531 C 157.69758 81.424316 150.29492 110.80469 150.29492 110.80469 L 150.92773 110.80469 C 153.20191 104.2452 162.41888 83.341291 187.82422 82.894531 L 187.82422 80.894531 z M 137.7832 140.98047 C 116.5888 206.36362 67.826172 200.53516 67.826172 200.53516 L 67.826172 202.53516 C 67.826172 202.53516 116.5888 208.36362 137.7832 142.98047 L 173.01758 142.98047 L 173.01758 140.98047 L 137.7832 140.98047 z"/>
</svg>
